X:1
T:Jesus’ Little Ones
T:Jesus’ Little Ones
T:Charles H. Gabriel, c.1893
T:C. H. G., c.1893; arr., 2008
T:PUBLIC DOMAIN
C:Charles H. Gabriel, c.1893
Z:C. H. G., c.1893; arr., 2008
Z:PUBLIC DOMAIN
%%score ( 1 2 ) ( 3 4 5 )
L:1/8
Q:1/4=75
M:2/4
K:Ab
V:1 treble nm="Treble"
V:2 treble 
V:3 bass nm="Bass"
V:4 bass 
V:5 bass 
V:1
 E A F A | E A F2 | E A G A | B c B2 | B c B F | G A B2 | B A G F | E4 || %8
w: 1.~Je- sus’ lit- tle|ones are we,|From all sin He|makes us free,|More like Him to|dai- ly be,|For He loves us|so.|
w: 2.~In the straight and|nar- row way|He will lead us|day by day,|Seek us if we|go a- stray,|||
w: 3.~Though we’re lit- tle,|weak, and frail,|By His pow’r we|shall pre- vail,|Je- sus’ love will|nev- er fail,|||
"^Refrain" [Ec]3/2 [Ec]/ [DB] [CA] | [DF] [DA] [CE]2 | [DE] [DG] [DE] [DB] | [CE] [DF] [CE]2 | %12
w: Je- sus is the|tru- est Friend,|On His strength we|can de- pend,|
w: ||||
w: ||||
 [Ec]3/2 [Ec]/ [DB] [CA] | [DF] [DA] [CE]2 | [DE] [DG] [DE] [DB] | [CA]4 |] %16
w: And His care will|nev- er end,|For He loves us|so.|
w: ||||
w: ||||
V:2
 C2 C2 | C4 | C2 D E | E4 | F2 =D2 | E4 | =D F E D | E4 || x4 | x4 | x4 | x4 | x4 | x4 | x4 | x4 |] %16
V:3
 A,2 F,2 | A,2 F,2 | [A,,A,]2 [B,,E,] [C,A,] | G, A, [E,G,]2 | [=D,A,]2 A, B, | B, F, G,2 | %6
 F, B,2 A, | G,4 || [A,,A,]3/2 [A,,A,]/ [A,,A,] [A,,A,] | [A,,A,] [A,,F,] [A,,A,]2 | %10
 [B,,G,] [B,,E,] [E,G,] [E,G,] | A, A, A,2 | [A,,A,]3/2 [A,,A,]/ [A,,A,] [A,,A,] | %13
 [A,,A,] [A,,F,] [A,,A,]2 | [B,,G,] [B,,E,] [E,G,] [E,G,] | [A,,A,]4 |] %16
V:4
 A,,4 | A,,4 | x4 | E,2 z2 | z2 B,,2 | E,4 | B,,4 | E, D, C, B,, || x4 | x4 | x4 | A, A, A,2 | x4 | %13
 x4 | x4 | x4 |] %16
V:5
 x4 | x4 | x4 | x4 | x4 | x4 | x4 | x4 || x4 | x4 | x4 | z2 z/ A,/E,/C,/ | x4 | x4 | x4 | x4 |] %16

